mobile/apps/auth/assets/custom-icons/icons/uollet.svg

<svg xmlns="http://www.w3.org/2000/svg" fill="none" viewBox="0 0 500 404"><path fill="#461EC5" d="M232.61 401.571c-11.716-2.929-18.599-6.151-28.558-13.181-4.833-3.514-49.061-46.718-98.269-96.218-68.539-68.832-90.653-91.825-94.607-98.562-14.206-24.604-14.792-47.45-2.197-72.347 5.712-11.276 17.72-24.457 66.05-72.786 40.274-40.274 43.349-42.47 64.292-47.01 12.009-2.49 21.089-1.905 34.855 2.489 14.059 4.247 23.725 11.57 50.086 37.784 13.181 13.035 24.751 23.725 25.776 23.725.878 0 1.611 1.319 1.611 2.93 0 1.61-.586 2.928-1.318 2.928-.586 0-6.444 5.273-12.888 11.717-13.034 12.887-20.796 26.068-22.114 37.345-.733 7.176 2.196 24.164 4.247 24.164.732 0 1.318 1.318 1.318 2.929 0 4.247 19.917 23.725 27.826 27.387 3.661 1.61 9.812 3.807 13.62 4.832 6.59 1.758 7.615 1.611 17.574-2.196 5.858-2.344 11.13-4.98 11.716-6.151.586-1.025 1.611-1.904 2.343-1.904.586 0 10.691-9.52 22.554-21.236 20.063-19.624 21.967-21.235 27.093-21.235 5.126 0 7.323 1.904 42.471 37.052 20.21 20.21 36.906 37.785 36.906 38.81 0 .878.585 1.757 1.318 1.757.585 0 3.075 4.101 5.418 9.227 3.369 7.469 4.247 11.569 4.687 23.432.586 12.302.293 14.206-1.758 14.206-1.318 0-2.343.878-2.343 1.903 0 1.026-30.169 31.927-66.928 68.54-59.899 59.605-68.246 67.221-77.326 71.907-18.6 9.519-35.881 12.009-53.455 7.762ZM2.242 152.311c-.293-2.343-.586-.732-.586 3.222 0 4.101.293 5.858.586 4.101.293-1.904.293-5.126 0-7.323Z"/><path fill="#36198A" d="M430.319 233.152c0-1.171-.586-2.197-1.318-2.197-.732 0-1.025-1.318-.586-2.929 1.318-5.125 4.833-3.514 4.833 2.197 0 2.783-.586 5.126-1.464 5.126-.732 0-1.465-1.025-1.465-2.197ZM421.386 210.745c-4.248-4.979-4.54-7.615-.586-7.615 3.222 0 3.661.585 3.661 5.125 0 5.858-.146 6.005-3.075 2.49ZM252.527 182.48c-4.832-1.611-11.423-4.833-14.791-7.176-8.787-6.005-25.336-24.897-21.968-24.897.586 0-.146-1.025-1.318-2.343-1.318-1.172-2.05-2.929-1.611-3.661.586-.732.147-1.318-.732-1.318-1.025 0-1.318-1.172-.732-2.929.439-1.611.439-2.929-.293-2.929-.586 0-1.172-5.565-1.172-12.449 0-6.883.586-12.448 1.318-12.448.586 0 .879-1.025.293-2.197-.439-1.171-.146-2.197.732-2.197.879 0 1.318-1.025.733-2.196-.44-1.172-.147-2.197.732-2.197s1.171-.586.732-1.318c-.439-.732.147-1.758 1.465-2.197 1.318-.44 2.05-1.904 1.611-2.929a2.274 2.274 0 0 1 1.318-2.929c1.171-.44 1.904-1.318 1.757-1.904-.439-1.464 23.579-25.336 25.483-25.336.732 0 .878-.732.293-1.61-.586-1.026 0-1.319 1.757-.733 2.197.732 8.787-5.126 29.876-25.922 28.997-28.704 33.684-31.926 52.722-36.906 16.989-4.54 39.982.147 54.773 10.984 6.737 4.98 55.066 52.576 55.066 54.334 0 .585.879 1.464 1.904 1.757.878.44-4.101.732-11.423.732-10.106-.146-14.646.44-19.332 2.636-7.03 3.222-63.56 57.702-59.899 57.702 1.611 0 2.344 1.318 2.344 4.394 0 3.954.439 4.393 4.393 4.393 4.101 0 4.394.44 4.394 5.419v5.419l-9.373-9.227c-8.641-8.494-9.812-9.226-12.156-7.322-1.464 1.171-11.423 10.837-22.26 21.528-10.838 10.544-20.21 19.331-20.796 19.331-.586 0-1.758.879-2.344 1.904-.585 1.172-5.565 3.808-11.13 5.858-11.716 4.687-20.21 4.98-32.366.879Zm36.32-40.567c8.495-7.176 10.691-14.499 6.884-22.846-3.662-8.202-8.202-11.863-17.135-14.06-6.737-1.464-8.201-1.318-13.034 1.026-4.247 2.196-6.005 4.54-8.787 11.276-3.369 8.202-3.369 8.641-1.026 15.085 2.637 7.029 8.202 12.155 15.671 14.645 4.833 1.611 12.009-.439 17.427-5.126ZM383.455 170.178l-4.979-5.126h5.418c5.273 0 5.419.147 5.419 5.126 0 2.783-.146 5.126-.439 5.126-.293 0-2.636-2.343-5.419-5.126Z"/><path fill="#2B146D" d="M430.026 239.157c-.586-10.545-1.465-14.06-6.005-23.14-4.686-9.519-9.372-14.645-41.885-47.303-20.21-20.064-37.052-37.785-37.638-39.249-1.171-3.515 53.894-57.556 62.828-61.803 4.686-2.05 9.226-2.782 18.892-2.782h12.741l20.064 19.624c21.675 21.382 29.876 32.366 33.831 45.254 1.464 4.54 3.075 8.64 3.807 9.08.733.585.879 2.343.44 3.954-.586 1.611-.293 3.368.585 3.954 1.904 1.172 1.904 14.938-.146 16.256-.879.439-1.318 2.197-.879 3.661.44 1.465-.586 5.126-2.05 8.202-1.465 2.929-2.783 6.736-2.783 8.201 0 3.368-5.858 14.206-7.615 14.206-.586 0-1.172.878-1.172 1.903 0 2.197-48.622 52.284-50.818 52.284-.879 0-1.758-5.126-2.197-12.302ZM266.586 151.432c-6.151-2.343-15.231-9.519-14.206-11.423.586-.732.147-1.318-.732-1.318-.878 0-1.171-.586-.732-1.464.439-.733.293-1.465-.586-1.465s-1.171-1.025-.732-2.197c.586-1.171.293-2.197-.439-2.197-.733 0-1.319-2.636-1.172-5.858 0-3.221.439-5.858.879-5.858 1.464 0 4.393-7.469 3.514-8.933-.585-.732-.146-1.318.586-1.318.879 0 1.465-.732 1.172-1.758-.147-.878 2.343-3.222 5.565-4.979 7.323-4.247 16.256-5.858 19.039-3.515 1.171.879 2.782 1.318 3.515.879.732-.586 1.757-.293 2.343.586.586.878 1.464 1.171 2.197.732 2.05-1.318 10.544 6.883 13.327 13.181 3.514 7.762 3.514 9.519-.44 9.519-2.489 0-3.954-1.465-5.711-5.712-2.929-6.883-11.716-13.766-17.282-13.62-5.125.147-16.109 5.419-17.281 8.348-.439 1.172-2.05 2.197-3.515 2.197-2.343 0-2.782 1.171-2.782 6.59 0 3.808 1.025 8.641 2.197 10.838 2.636 5.125 10.105 11.569 14.791 12.741 2.49.586 3.515 1.904 3.515 4.393 0 3.955-.293 3.955-7.03 1.611Z"/><path fill="#2B146D" d="M275.081 149.821c0-2.782 1.025-3.807 4.54-4.54 5.565-1.171 14.352-10.251 15.524-15.67.586-3.075 1.611-4.101 4.247-4.101 3.954 0 4.101 1.172 2.05 8.934-1.904 6.59-7.615 12.595-15.377 16.11-8.201 3.807-10.984 3.514-10.984-.733Z"/><path fill="#1F0E4E" d="M265.561 150.114c-8.054-4.1-10.983-6.883-14.059-13.62-3.661-8.054-3.515-14.205.879-22.7 7.762-15.523 29.437-18.892 40.86-6.59 6.737 7.176 7.762 8.641 7.029 10.691-.292.879.147 1.757 1.026 1.757.878 0 1.611 2.344 1.611 5.126 0 2.783-.733 5.126-1.611 5.126-.879 0-1.318 1.318-.879 2.929.439 1.611.146 2.929-.732 2.929-.733 0-1.026.586-.586 1.318.439.732-.147 1.758-1.465 2.197-1.318.586-2.05 1.318-1.464 1.904.439.439-.586 1.611-2.49 2.636-1.757.879-3.075 2.343-2.929 3.222.147.879-2.343 1.904-5.419 2.489-3.222.44-5.858 1.611-5.858 2.344 0 2.343-7.615 1.318-13.913-1.758Z"/><path fill="#461EC5" d="M1.217 150.407h4.394v10.252H1.217z"/><path fill="#2B146D" d="M462.539 88.165c43.622 42.561 48.698 78.323 17.574 114.965L462.539 88.165Z"/><circle cx="275.081" cy="125.51" r="27.826" fill="#1F0E4E"/><path fill="#36198A" d="M222.359 89.63c-25.499 27.979-22.602 43.307-.732 70.296l.732-70.296Z"/></svg>

<svg width="500" height="404" viewBox="0 0 500 404" fill="none" xmlns="http://www.w3.org/2000/svg">
<path d="M232.61 401.571C220.894 398.642 214.011 395.42 204.052 388.39C199.219 384.876 154.991 341.672 105.783 292.172C37.244 223.34 15.1299 200.347 11.1757 193.61C-3.03008 169.006 -3.61588 146.16 8.97892 121.263C14.6905 109.987 26.6995 96.806 75.0284 48.4771C115.303 8.20299 118.378 6.00622 139.321 1.46623C151.33 -1.02344 160.41 -0.437633 174.176 3.9559C188.235 8.20299 197.901 15.5256 224.262 41.7403C237.443 54.7745 249.013 65.4654 250.038 65.4654C250.916 65.4654 251.649 66.7835 251.649 68.3945C251.649 70.0054 251.063 71.3235 250.331 71.3235C249.745 71.3235 243.887 76.5957 237.443 83.0396C224.409 95.9273 216.647 109.108 215.329 120.385C214.596 127.561 217.525 144.549 219.576 144.549C220.308 144.549 220.894 145.867 220.894 147.478C220.894 151.725 240.811 171.203 248.72 174.865C252.381 176.475 258.532 178.672 262.34 179.697C268.93 181.455 269.955 181.308 279.914 177.501C285.772 175.157 291.044 172.521 291.63 171.35C292.216 170.325 293.241 169.446 293.973 169.446C294.559 169.446 304.664 159.926 316.527 148.21C336.59 128.586 338.494 126.975 343.62 126.975C348.746 126.975 350.943 128.879 386.091 164.027C406.301 184.237 422.997 201.812 422.997 202.837C422.997 203.715 423.582 204.594 424.315 204.594C424.9 204.594 427.39 208.695 429.733 213.821C433.102 221.29 433.98 225.39 434.42 237.253C435.006 249.555 434.713 251.459 432.662 251.459C431.344 251.459 430.319 252.337 430.319 253.362C430.319 254.388 400.15 285.289 363.391 321.902C303.492 381.507 295.145 389.123 286.065 393.809C267.465 403.328 250.184 405.818 232.61 401.571ZM2.24217 152.311C1.94926 149.968 1.65636 151.579 1.65636 155.533C1.65636 159.634 1.94926 161.391 2.24217 159.634C2.53507 157.73 2.53507 154.508 2.24217 152.311Z" fill="#461EC5"/>
<path d="M430.319 233.152C430.319 231.981 429.733 230.955 429.001 230.955C428.269 230.955 427.976 229.637 428.415 228.026C429.733 222.901 433.248 224.512 433.248 230.223C433.248 233.006 432.662 235.349 431.784 235.349C431.052 235.349 430.319 234.324 430.319 233.152Z" fill="#36198A"/>
<path d="M421.386 210.745C417.138 205.766 416.846 203.13 420.8 203.13C424.022 203.13 424.461 203.715 424.461 208.255C424.461 214.113 424.315 214.26 421.386 210.745Z" fill="#36198A"/>
<path d="M252.527 182.48C247.695 180.869 241.104 177.647 237.736 175.304C228.949 169.299 212.4 150.407 215.768 150.407C216.354 150.407 215.622 149.382 214.45 148.064C213.132 146.892 212.4 145.135 212.839 144.403C213.425 143.671 212.986 143.085 212.107 143.085C211.082 143.085 210.789 141.913 211.375 140.156C211.814 138.545 211.814 137.227 211.082 137.227C210.496 137.227 209.91 131.662 209.91 124.778C209.91 117.895 210.496 112.33 211.228 112.33C211.814 112.33 212.107 111.305 211.521 110.133C211.082 108.962 211.375 107.936 212.253 107.936C213.132 107.936 213.571 106.911 212.986 105.74C212.546 104.568 212.839 103.543 213.718 103.543C214.597 103.543 214.889 102.957 214.45 102.225C214.011 101.493 214.597 100.467 215.915 100.028C217.233 99.5887 217.965 98.1242 217.526 97.099C217.086 95.9274 217.672 94.6094 218.844 94.17C220.015 93.7306 220.748 92.8519 220.601 92.2661C220.162 90.8016 244.18 66.9301 246.084 66.9301C246.816 66.9301 246.962 66.1978 246.377 65.3191C245.791 64.2939 246.377 64.001 248.134 64.5868C250.331 65.3191 256.921 59.4611 278.01 38.665C307.007 9.96053 311.694 6.7386 330.732 1.75926C347.721 -2.78073 370.714 1.90571 385.505 12.7431C392.242 17.7224 440.571 65.3191 440.571 67.0765C440.571 67.6623 441.45 68.541 442.475 68.8339C443.353 69.2733 438.374 69.5662 431.052 69.5662C420.946 69.4197 416.406 70.0055 411.72 72.2023C404.69 75.4242 348.16 129.904 351.821 129.904C353.432 129.904 354.165 131.222 354.165 134.298C354.165 138.252 354.604 138.691 358.558 138.691C362.659 138.691 362.952 139.131 362.952 144.11V149.529L353.579 140.302C344.938 131.808 343.767 131.076 341.423 132.98C339.959 134.151 330 143.817 319.163 154.508C308.325 165.052 298.953 173.839 298.367 173.839C297.781 173.839 296.609 174.718 296.023 175.743C295.438 176.915 290.458 179.551 284.893 181.601C273.177 186.288 264.683 186.581 252.527 182.48ZM288.847 141.913C297.342 134.737 299.538 127.414 295.731 119.067C292.069 110.865 287.529 107.204 278.596 105.007C271.859 103.543 270.395 103.689 265.562 106.033C261.315 108.229 259.557 110.573 256.775 117.309C253.406 125.511 253.406 125.95 255.749 132.394C258.386 139.423 263.951 144.549 271.42 147.039C276.253 148.65 283.429 146.6 288.847 141.913Z" fill="#36198A"/>
<path d="M383.455 170.178L378.476 165.052H383.894C389.167 165.052 389.313 165.199 389.313 170.178C389.313 172.961 389.167 175.304 388.874 175.304C388.581 175.304 386.238 172.961 383.455 170.178Z" fill="#36198A"/>
<path d="M430.026 239.157C429.44 228.612 428.561 225.097 424.021 216.017C419.335 206.498 414.649 201.372 382.136 168.714C361.926 148.65 345.084 130.929 344.498 129.465C343.327 125.95 398.392 71.9093 407.326 67.6622C412.012 65.6119 416.552 64.8796 426.218 64.8796H438.959L459.023 84.5041C480.698 105.886 488.899 116.87 492.854 129.758C494.318 134.298 495.929 138.398 496.661 138.838C497.394 139.423 497.54 141.181 497.101 142.792C496.515 144.403 496.808 146.16 497.686 146.746C499.59 147.918 499.59 161.684 497.54 163.002C496.661 163.441 496.222 165.199 496.661 166.663C497.101 168.128 496.075 171.789 494.611 174.865C493.146 177.794 491.828 181.601 491.828 183.066C491.828 186.434 485.97 197.272 484.213 197.272C483.627 197.272 483.041 198.15 483.041 199.175C483.041 201.372 434.419 251.459 432.223 251.459C431.344 251.459 430.465 246.333 430.026 239.157Z" fill="#2B146D"/>
<path d="M266.586 151.432C260.435 149.089 251.355 141.913 252.38 140.009C252.966 139.277 252.527 138.691 251.648 138.691C250.77 138.691 250.477 138.105 250.916 137.227C251.355 136.494 251.209 135.762 250.33 135.762C249.451 135.762 249.159 134.737 249.598 133.565C250.184 132.394 249.891 131.368 249.159 131.368C248.426 131.368 247.84 128.732 247.987 125.51C247.987 122.289 248.426 119.652 248.866 119.652C250.33 119.652 253.259 112.183 252.38 110.719C251.795 109.987 252.234 109.401 252.966 109.401C253.845 109.401 254.431 108.669 254.138 107.643C253.991 106.765 256.481 104.421 259.703 102.664C267.026 98.417 275.959 96.806 278.742 99.1492C279.913 100.028 281.524 100.467 282.257 100.028C282.989 99.4421 284.014 99.735 284.6 100.614C285.186 101.492 286.064 101.785 286.797 101.346C288.847 100.028 297.341 108.229 300.124 114.527C303.638 122.289 303.638 124.046 299.684 124.046C297.195 124.046 295.73 122.581 293.973 118.334C291.044 111.451 282.257 104.568 276.691 104.714C271.566 104.861 260.582 110.133 259.41 113.062C258.971 114.234 257.36 115.259 255.895 115.259C253.552 115.259 253.113 116.43 253.113 121.849C253.113 125.657 254.138 130.49 255.31 132.687C257.946 137.812 265.415 144.256 270.101 145.428C272.591 146.014 273.616 147.332 273.616 149.821C273.616 153.776 273.323 153.776 266.586 151.432Z" fill="#2B146D"/>
<path d="M275.081 149.821C275.081 147.039 276.106 146.014 279.621 145.281C285.186 144.11 293.973 135.03 295.145 129.611C295.731 126.536 296.756 125.51 299.392 125.51C303.346 125.51 303.493 126.682 301.442 134.444C299.538 141.034 293.827 147.039 286.065 150.554C277.864 154.361 275.081 154.068 275.081 149.821Z" fill="#2B146D"/>
<path d="M265.561 150.114C257.507 146.014 254.578 143.231 251.502 136.494C247.841 128.44 247.987 122.289 252.381 113.794C260.143 98.2705 281.818 94.9022 293.241 107.204C299.978 114.38 301.003 115.845 300.27 117.895C299.978 118.774 300.417 119.652 301.296 119.652C302.174 119.652 302.907 121.996 302.907 124.778C302.907 127.561 302.174 129.904 301.296 129.904C300.417 129.904 299.978 131.222 300.417 132.833C300.856 134.444 300.563 135.762 299.685 135.762C298.952 135.762 298.659 136.348 299.099 137.08C299.538 137.812 298.952 138.838 297.634 139.277C296.316 139.863 295.584 140.595 296.17 141.181C296.609 141.62 295.584 142.792 293.68 143.817C291.923 144.696 290.605 146.16 290.751 147.039C290.898 147.918 288.408 148.943 285.332 149.528C282.11 149.968 279.474 151.139 279.474 151.872C279.474 154.215 271.859 153.19 265.561 150.114Z" fill="#1F0E4E"/>
<rect x="1.21729" y="150.407" width="4.39354" height="10.2516" fill="#461EC5"/>
<path d="M462.539 88.1654C506.161 130.726 511.237 166.488 480.113 203.13L462.539 88.1654Z" fill="#2B146D"/>
<circle cx="275.081" cy="125.51" r="27.8257" fill="#1F0E4E"/>
<path d="M222.359 89.6299C196.86 117.609 199.757 132.937 221.627 159.926L222.359 89.6299Z" fill="#36198A"/>
</svg>
